assets/icons/clock.svg

<svg  viewBox="0 0 24 24" fill="black" xmlns="http://www.w3.org/2000/svg">
	<path d="M23 12c0-3.037-1.232-5.789-3.222-7.778s-4.741-3.222-7.778-3.222-5.789 1.232-7.778 3.222-3.222 4.741-3.222 7.778 1.232 5.789 3.222 7.778 4.741 3.222 7.778 3.222 5.789-1.232 7.778-3.222 3.222-4.741 3.222-7.778zM21 12c0 2.486-1.006 4.734-2.636 6.364s-3.878 2.636-6.364 2.636-4.734-1.006-6.364-2.636-2.636-3.878-2.636-6.364 1.006-4.734 2.636-6.364 3.878-2.636 6.364-2.636 4.734 1.006 6.364 2.636 2.636 3.878 2.636 6.364zM11 6v6c0 0.389 0.222 0.727 0.553 0.894l4 2c0.494 0.247 1.095 0.047 1.342-0.447s0.047-1.095-0.447-1.342l-3.448-1.723v-5.382c0-0.552-0.448-1-1-1s-1 0.448-1 1z"></path>
</svg>

<svg viewBox="0 0 24 24" xmlns="http://www.w3.org/2000/svg">
	<path
		d="M23 12c0-3.037-1.232-5.789-3.222-7.778S15.037 1 12 1 6.211 2.232 4.222 4.222 1 8.963 1 12s1.232 5.789 3.222 7.778S8.963 23 12 23s5.789-1.232 7.778-3.222S23 15.037 23 12zm-2 0c0 2.486-1.006 4.734-2.636 6.364S14.486 21 12 21s-4.734-1.006-6.364-2.636S3 14.486 3 12s1.006-4.734 2.636-6.364S9.514 3 12 3s4.734 1.006 6.364 2.636S21 9.514 21 12zM11 6v6a1 1 0 00.553.894l4 2a1 1 0 00.895-1.789L13 11.382V6a1 1 0 00-2 0z" />
</svg>
